X: 177
T: The Fisherman's Wedding
H: As recorded by Winston S. Fitzgerald
C:Reel
M:C
Z:J Weismiller , 14/11/1998
L:1/8
K:F
|:G|FFAc dcAd|cAfF AGGA|FFAc dcde|fcag ff f:|
|:g|fcAc fdBc|dgba gfed|cfag fedc|BGcA FF F:|
<end>
<start>
